!!!SOCIAL_FUNCTION:	deer dance songs
!!!PDT:	1932
!!!OTL: No_62_The_Water_Bug_Stands_Upon_the_Fish.krn
!!!REG: Southwest
!!!LANG: Non-Tone
!!!LING_GROUP: Yuman-Cochimi
**kern	**kern
*staff2	*staff1
=1-	=1-
*clefF4	*clefF4
*k[f#c#g#d#a#]	*k[f#c#g#d#a#]
*M2/4	*M2/4
4GG#/	4G#\
4GG#/	4G#\
=2	=2
4GG#/	4d#\
4GG#/	4B\
=3	=3
4GG#/	4A#\
4GG#/	8B\L
.	8G#\J
=4	=4
4GG#/	4A#\
4GG#/	4G#\
=5||	=5||
*M3/4	*M3/4
4GG#/	8A#\L
.	8G#\J
4GG#/	4G#\
4r	8r
.	8G#\
=6	=6
4GG#/	8A#\L
.	8G#\J
4GG#/	8G#\
.	8r
4r	8.r
.	16E\
=7||	=7||
*M2/4	*M2/4
4GG#/	4G#\
4GG#/	4E\
=8	=8
4GG#/	8G#\L
.	8G#\J
4GG#/	16E\
.	16r
.	[8G#\
=9	=9
4GG#/	8G#\L]
.	8G#\J
4GG#/	4G#\
=10	=10
4r	4r
4GG#/	4G#\
=11||	=11
*M3/4	*
--d	=
*	*M3/4
4GG#/	2G#\
4GG#/	.
4r	8r
.	8A#\
=12||	=12||
*M2/4	*M2/4
4GG#/	4G#\
4GG#/	4G#\
=13	=13
4GG#/	4d#\
4GG#/	4B\
=14	=14
4GG#/	4A#\
4GG#/	8B\L
.	8G#\J
=15	=15
4GG#/	4A#\
4GG#/	4G#\
=16||	=16||
*M3/4	*M3/4
4GG#/	8A#\L
.	8G#\J
4GG#/	4G#\
4GG#/	8r
.	8E\
=17||	=17||
*M2/4	*M2/4
4GG#/	8G#\L
.	8E\J
4GG#/	4G#\
=18	=18
4GG#/	8G#\L
.	8G#\J
4GG#/	16E\
.	16r
.	[8G#\
=19	=19
4GG#/	8G#\L]
.	8G#\J
4GG#/	[4G#\
=20||	=20||
*M3/4	*M3/4
4GG#/	4G#\]
4GG#/	4r
4GG#/	4G#\
=21	=21
4GG#/	2.G#\
4GG#/	.
4r	.
==	==
*-	*-
